X:235
%%etbk:tnset id:73,pos:3,rep:3x,ant:
%%etbk:wsite http://www.thesession.org/tunes/display/261
%%etbk:pldat 2016-09-07T16:32,2014-04-30T15:45,2014-04-08T17:42,2014-02-16T13:57,2013-11-24T14:18
T: Ships In Full Sail
Z: Piano Box Version by Martin Fleischmann
H: Created 2013-02-19 /  Last Modified 2013-02-19
M: 6/8
L: 1/8
R: jig
K: Gmaj
!1!D!3!G!1!G !3!B!1!GG|!5!d!1!GG !3!B!1!GG | !2!efg !1!d!3!B!1!G | !2!ABA A!1!G!2!E |
!1!D!3!G!1!G BGG|dGG BGG | !2!efg !1!d!3!B!1!G | !2!ABA !1!G3 :||
!2!d!4!g!3!g !5!b!3!gg |!4!aga !5!b!3!g!2!e |!1!d!3!gg !5!b!3!gg |!4!aaa age |
!1!dgg bgg |!4!aga bge | !2!efg !1!d!3!B!1!G | !2!ABA !1!G3 :||


